TF1/histpfuncpYp.svg

<svg xmlns="http://www.w3.org/2000/svg" viewBox="0 0 1200 800" preserveAspectRatio="none" width="1200" height="800">
 <path d="M0,0H1200V800H0Z" style="fill: white;"></path>
 <g>
  <g transform="translate(120,80)">
   <path d="M0,0H960V640H0Z" style="fill: white; stroke: black; stroke-width: 1;"></path>
   <svg x="0" y="0" overflow="hidden" width="960" height="640" viewBox="0 0 960 640">
    <g>
     <path d="M0,415h5v-4h5v39h4v-46h5v21h5v11h5v-18h5v-46h4v64h5v-60h5v14h5v56h5v-10h4v10h5v-7h5v-35h5v-53h5v120h4v-42h5v49h5v-74h5v99h5v-57h4v-35h5v85h5v-43h5v11h5v46h4v-46h5v46h5v-14h5v-29h5v21h9v46h5v-35h5v-11h5v22h4v21h5v-57h5v-14h5v25h5v-18h4v25h5v18h5v35h5v-60h5v28h4v-46h5v36h5v-53h5v10h5v57h4v-64h5v39h5v-56h5v3h5v39h4v-74h5v-25h5v-28h5v123h5v-63h9v-81h5v-28h5v35h5v-35h4v10h5v-81h5v36h10v-46h4v-32h5v11h5v-113h5v148h5v-53h4v-106h5v67h5v28h5v-141h5v117h4v-67h5v10h5v57h5v-64h5v4h4v28h5v11h5v-29h5v120h5v35h4v-112h5v17h5v-24h5v56h5v56h4v-24h5v24h5v-3h5v14h5v32h4v53h5v-29h5v-14h5v57h5v-32h4v60h5v21h5v35h5v-7h5v4h4v56h5v-35h5v28h5v32h5v-29h4v46h5v11h5v-7h5v24h5v8h4v-15h5v29h5v-29h5v36h5v-25h4v11h5v21h10v17h5v-17h4v7h5v-11h5v11h5v7h5v-14h4v-4h5v25h5v-32h5v11h5v17h4v-14h5v14h5v-3h10v-7h4v24h5v-14h5v-7h5v-7h5v4h4v7h5v-50h5v60h5v-28h5v11h4v10h10v7h5v-14h9v11h5v-18h5v7h5v21h5v-7h4v-7h5v4h5v3h5v-7h5v14h4v-3h10v-4h5v4h5v-4h4v-3h5v17h5v-3h14v7h5v-7h5v3h5v4h5v-4h4v4h5v-7h5v3h5v4h5v-4h4v-3h10v-4h14v-10h5v14h5L960,643H0Z" style="stroke-linejoin: miter; stroke: #00009a; stroke-width: 1; fill: #c08378;"></path>
    </g>
    <g>
     <path d="M9.6,372.16C11.17,372.37,16.1,372.92,19.2,373.49S25.82,374.87,28.8,375.69S35.57,377.73,38.4,378.75S45.33,381.45,48,382.64S55.09,386,57.6,387.32S64.85,391.33,67.2,392.75S74.59,397.38,76.8,398.86S84.31,404.07,86.4,405.6S94.01,411.31,96,412.87S103.68,419,105.6,420.57S113.33,427,115.2,428.58S122.95,435.18,124.8,436.76S132.53,443.38,134.4,444.96S142.07,451.4,144,452.97S151.57,459.04,153.6,460.58S161.01,466.07,163.2,467.56S170.39,472.27,172.8,473.65S179.71,477.39,182.4,478.56S189.01,481.21,192,482.01S198.41,483.54,201.6,483.68S208.04,483.65,211.2,483.3S218.08,481.71,220.8,480.57S228.25,476.76,230.4,475.26S238.39,468.75,240,467.15S248.41,457.68,249.6,456.13S258.31,443.58,259.2,442.14S268.11,426.54,268.8,425.22S277.84,406.74,278.4,405.53S287.53,384.46,288,383.33S297.3,359.94,297.6,359.01S307.02,324.01,307.2,323.28S316.64,281.15,316.8,280.46S326.23,239.24,326.4,238.53S335.82,199.07,336,198.32S345.39,161.48,345.6,160.68S354.94,127.33,355.2,126.45S364.45,97.42,364.8,96.43S373.9,72.51,374.4,71.35S383.19,53.22,384,51.83S392.12,39.93,393.6,38.34S400.1,31.74,403.2,31.19S409.64,30.15,412.8,30.51S420.67,34.65,422.4,36.25S431.05,46.7,432,48.16S441.01,64.6,441.6,65.83S450.79,87.64,451.2,88.71S460.49,115.15,460.8,116.09S470.14,146.35,470.4,147.22S479.78,180.42,480,181.24S489.39,216.52,489.6,217.31S499,253.81,499.2,254.58S508.6,291.5,508.8,292.27S518.2,328.85,518.4,329.63S527.78,365.24,528,366.05S537.36,400.14,537.6,400.97S546.93,433.11,547.2,433.99S556.5,463.85,556.8,464.79S566.04,492.14,566.4,493.15S575.58,517.88,576,518.97S585.09,541.05,585.6,542.22S594.54,561.66,595.2,562.95S603.58,578.27,604.8,579.83S612.27,585.98,614.4,587.49S621.51,592.06,624,593.4S630.83,596.7,633.6,597.79S640.22,600.11,643.2,600.92S649.7,602.47,652.8,603.02S659.23,603.98,662.4,604.31S668.81,604.84,672,605S678.4,605.27,681.6,605.27S688,605.27,691.2,605.27S697.6,605.18,700.8,605.13S707.2,605.01,710.4,604.97S716.8,604.87,720,604.86S726.4,604.86,729.6,604.88S736,604.98,739.2,605.09S745.61,605.33,748.8,605.51S755.22,605.91,758.4,606.17S764.84,606.74,768,607.08S774.46,607.83,777.6,608.26S784.08,609.18,787.2,609.69S793.71,610.79,796.8,611.36S803.34,612.63,806.4,613.27S812.96,614.69,816,615.39S822.59,616.96,825.6,617.71S832.21,619.4,835.2,620.19S841.83,621.99,844.8,622.82S851.45,624.7,854.4,625.56S861.06,627.51,864,628.39S870.67,630.39,873.6,631.27S880.27,633.3,883.2,634.19S889.87,636.22,892.8,637.11S899.22,639.76,902.4,640S908.94,639.25,912,638.58S918.64,636.66,921.6,635.82S928.22,633.98,931.2,633.17S937.8,631.42,940.8,630.65S947.37,629,950.4,628.28S958.48,626.42,960,626.08" style="fill: none; stroke: blue; stroke-width: 6;"></path>
    </g>
   </svg>
   <g>
    <g transform="translate(0,640)">
     <path d="M0,0h960M0,-24v24m19,-12v12m19,-12v12m20,-12v12m19,-12v12m19,-24v24m19,-12v12m19,-12v12m20,-12v12m19,-12v12m19,-24v24m19,-12v12m19,-12v12m20,-12v12m19,-12v12m19,-24v24m19,-12v12m19,-12v12m20,-12v12m19,-12v12m19,-24v24m19,-12v12m19,-12v12m20,-12v12m19,-12v12m19,-24v24m19,-12v12m19,-12v12m20,-12v12m19,-12v12m19,-24v24m19,-12v12m19,-12v12m20,-12v12m19,-12v12m19,-24v24m19,-12v12m19,-12v12m20,-12v12m19,-12v12m19,-24v24m19,-12v12m19,-12v12m20,-12v12m19,-12v12m19,-24v24m19,-12v12m19,-12v12m20,-12v12m19,-12v12m19,-24v24" style="stroke: black; stroke-width: 1;"></path>
     <g font-family="Arial" font-size="28" space="preserve" fill="black" text-anchor="middle">
      <text dy=".8em" transform="translate(0,6)">
       0
      </text>
      <text dy=".8em" transform="translate(96,6)">
       1
      </text>
      <text dy=".8em" transform="translate(192,6)">
       2
      </text>
      <text dy=".8em" transform="translate(288,6)">
       3
      </text>
      <text dy=".8em" transform="translate(384,6)">
       4
      </text>
      <text dy=".8em" transform="translate(480,6)">
       5
      </text>
      <text dy=".8em" transform="translate(576,6)">
       6
      </text>
      <text dy=".8em" transform="translate(672,6)">
       7
      </text>
      <text dy=".8em" transform="translate(768,6)">
       8
      </text>
      <text dy=".8em" transform="translate(864,6)">
       9
      </text>
      <text dy=".8em" transform="translate(960,6)">
       10
      </text>
     </g>
    </g>
    <g>
     <path d="M0,0v640M36,640h-36m18,-18h-18m18,-17h-18m18,-18h-18m36,-17h-36m18,-18h-18m18,-18h-18m18,-17h-18m36,-18h-36m18,-18h-18m18,-17h-18m18,-18h-18m36,-17h-36m18,-18h-18m18,-18h-18m18,-17h-18m36,-18h-36m18,-17h-18m18,-18h-18m18,-18h-18m36,-17h-36m18,-18h-18m18,-18h-18m18,-17h-18m36,-18h-36m18,-17h-18m18,-18h-18m18,-18h-18m36,-17h-36m18,-18h-18m18,-17h-18m18,-18h-18m36,-18h-36m18,-17h-18m18,-18h-18m18,-18h-18m36,-17h-36" style="stroke: black; stroke-width: 1;"></path>
     <g font-family="Arial" font-size="28" space="preserve" fill="black" text-anchor="end">
      <text dy=".4em" transform="translate(-4,640)">
       0
      </text>
      <text dy=".4em" transform="translate(-4,570)">
       20
      </text>
      <text dy=".4em" transform="translate(-4,499)">
       40
      </text>
      <text dy=".4em" transform="translate(-4,429)">
       60
      </text>
      <text dy=".4em" transform="translate(-4,358)">
       80
      </text>
      <text dy=".4em" transform="translate(-4,288)">
       100
      </text>
      <text dy=".4em" transform="translate(-4,217)">
       120
      </text>
      <text dy=".4em" transform="translate(-4,147)">
       140
      </text>
      <text dy=".4em" transform="translate(-4,76)">
       160
      </text>
      <text dy=".4em" transform="translate(-4,6)">
       180
      </text>
     </g>
    </g>
    <g transform="translate(960)">
     <path d="M0,0v640M0,627h-18m18,-13h-18m18,-14h-18m18,-13h-18m18,-14h-36m36,-13h-18m18,-13h-18m18,-14h-18m18,-13h-18m18,-14h-36m36,-13h-18m18,-14h-18m18,-13h-18m18,-14h-18m18,-13h-36m36,-13h-18m18,-14h-18m18,-13h-18m18,-14h-18m18,-13h-36m36,-14h-18m18,-13h-18m18,-14h-18m18,-13h-18m18,-14h-36m36,-13h-18m18,-13h-18m18,-14h-18m18,-13h-18m18,-14h-36m36,-13h-18m18,-14h-18m18,-13h-18m18,-14h-18m18,-13h-36m36,-13h-18m18,-14h-18m18,-13h-18m18,-14h-18m18,-13h-36m36,-14h-18m18,-13h-18m18,-14h-18m18,-13h-18m18,-14h-36m36,-13h-18m18,-13h-18" style="stroke: black; stroke-width: 1;"></path>
     <g font-family="Arial" font-size="28" space="preserve" fill="black" text-anchor="start">
      <text dy=".4em" transform="translate(4,573)">
       5
      </text>
      <text dy=".4em" transform="translate(4,506)">
       10
      </text>
      <text dy=".4em" transform="translate(4,439)">
       15
      </text>
      <text dy=".4em" transform="translate(4,372)">
       20
      </text>
      <text dy=".4em" transform="translate(4,304)">
       25
      </text>
      <text dy=".4em" transform="translate(4,237)">
       30
      </text>
      <text dy=".4em" transform="translate(4,170)">
       35
      </text>
      <text dy=".4em" transform="translate(4,103)">
       40
      </text>
      <text dy=".4em" transform="translate(4,35)">
       45
      </text>
     </g>
    </g>
   </g>
  </g>
  <g transform="translate(120,4)" font-family="Arial" font-size="40" space="preserve">
   <text fill="black" text-anchor="middle" dy=".8em" transform="translate(480)">
    Test random numbers
   </text>
  </g>
  <g transform="translate(936,52)" font-family="Arial" font-size="25" space="preserve" fill="black">
   <path d="M0,0H240V128H0Z" style="fill: white; stroke: black; stroke-width: 1;"></path>
   <text text-anchor="middle" dy=".4em" transform="translate(120,16)">
    h1f
   </text>
   <text text-anchor="start" dy=".4em" transform="translate(12,48)">
    Entries
   </text>
   <text text-anchor="end" dy=".4em" transform="translate(228,48)">
    10000
   </text>
   <text text-anchor="start" dy=".4em" transform="translate(12,80)">
    Mean
   </text>
   <text text-anchor="end" dy=".4em" transform="translate(228,80)">
    3.637
   </text>
   <text text-anchor="start" dy=".4em" transform="translate(12,112)">
    Std Dev
   </text>
   <text text-anchor="end" dy=".4em" transform="translate(228,112)">
    1.834
   </text>
   <path d="M0,32h240" style="stroke: black; stroke-width: 1;"></path>
  </g>
 </g>
</svg>

<svg xmlns="http://www.w3.org/2000/svg" viewBox="0 0 1200 800" preserveAspectRatio="none" width="1200" height="800">
 <path d="M0,0H1200V800H0Z" style="fill: white;"></path>
 <g>
  <g transform="translate(120,80)">
   <path d="M0,0H960V640H0Z" style="fill: white; stroke: black; stroke-width: 1;"></path>
   <svg x="0" y="0" overflow="hidden" width="960" height="640" viewBox="0 0 960 640">
    <g>
     <path d="M0,415h5v-4h5v39h4v-46h5v21h5v11h5v-18h5v-46h4v64h5v-60h5v14h5v56h5v-10h4v10h5v-7h5v-35h5v-53h5v120h4v-42h5v49h5v-74h5v99h5v-57h4v-35h5v85h5v-43h5v11h5v46h4v-46h5v46h5v-14h5v-29h5v21h9v46h5v-35h5v-11h5v22h4v21h5v-57h5v-14h5v25h5v-18h4v25h5v18h5v35h5v-60h5v28h4v-46h5v36h5v-53h5v10h5v57h4v-64h5v39h5v-56h5v3h5v39h4v-74h5v-25h5v-28h5v123h5v-63h9v-81h5v-28h5v35h5v-35h4v10h5v-81h5v36h10v-46h4v-32h5v11h5v-113h5v148h5v-53h4v-106h5v67h5v28h5v-141h5v117h4v-67h5v10h5v57h5v-64h5v4h4v28h5v11h5v-29h5v120h5v35h4v-112h5v17h5v-24h5v56h5v56h4v-24h5v24h5v-3h5v14h5v32h4v53h5v-29h5v-14h5v57h5v-32h4v60h5v21h5v35h5v-7h5v4h4v56h5v-35h5v28h5v32h5v-29h4v46h5v11h5v-7h5v24h5v8h4v-15h5v29h5v-29h5v36h5v-25h4v11h5v21h10v17h5v-17h4v7h5v-11h5v11h5v7h5v-14h4v-4h5v25h5v-32h5v11h5v17h4v-14h5v14h5v-3h10v-7h4v24h5v-14h5v-7h5v-7h5v4h4v7h5v-50h5v60h5v-28h5v11h4v10h10v7h5v-14h9v11h5v-18h5v7h5v21h5v-7h4v-7h5v4h5v3h5v-7h5v14h4v-3h10v-4h5v4h5v-4h4v-3h5v17h5v-3h14v7h5v-7h5v3h5v4h5v-4h4v4h5v-7h5v3h5v4h5v-4h4v-3h10v-4h14v-10h5v14h5L960,643H0Z" style="stroke-linejoin: miter; stroke: #00009a; stroke-width: 1; fill: #c08378;"></path>
    </g>
    <g>
     <path d="M9.6,372.16C11.17,372.37,16.1,372.92,19.2,373.49S25.82,374.87,28.8,375.69S35.57,377.73,38.4,378.75S45.33,381.45,48,382.64S55.09,386,57.6,387.32S64.85,391.33,67.2,392.75S74.59,397.38,76.8,398.86S84.31,404.07,86.4,405.6S94.01,411.31,96,412.87S103.68,419,105.6,420.57S113.33,427,115.2,428.58S122.95,435.18,124.8,436.76S132.53,443.38,134.4,444.96S142.07,451.4,144,452.97S151.57,459.04,153.6,460.58S161.01,466.07,163.2,467.56S170.39,472.27,172.8,473.65S179.71,477.39,182.4,478.56S189.01,481.21,192,482.01S198.41,483.54,201.6,483.68S208.04,483.65,211.2,483.3S218.08,481.71,220.8,480.57S228.25,476.76,230.4,475.26S238.39,468.75,240,467.15S248.41,457.68,249.6,456.13S258.31,443.58,259.2,442.14S268.11,426.54,268.8,425.22S277.84,406.74,278.4,405.53S287.53,384.46,288,383.33S297.3,359.94,297.6,359.01S307.02,324.01,307.2,323.28S316.64,281.15,316.8,280.46S326.23,239.24,326.4,238.53S335.82,199.07,336,198.32S345.39,161.48,345.6,160.68S354.94,127.33,355.2,126.45S364.45,97.42,364.8,96.43S373.9,72.51,374.4,71.35S383.19,53.22,384,51.83S392.12,39.93,393.6,38.34S400.1,31.74,403.2,31.19S409.64,30.15,412.8,30.51S420.67,34.65,422.4,36.25S431.05,46.7,432,48.16S441.01,64.6,441.6,65.83S450.79,87.64,451.2,88.71S460.49,115.15,460.8,116.09S470.14,146.35,470.4,147.22S479.78,180.42,480,181.24S489.39,216.52,489.6,217.31S499,253.81,499.2,254.58S508.6,291.5,508.8,292.27S518.2,328.85,518.4,329.63S527.78,365.24,528,366.05S537.36,400.14,537.6,400.97S546.93,433.11,547.2,433.99S556.5,463.85,556.8,464.79S566.04,492.14,566.4,493.15S575.58,517.88,576,518.97S585.09,541.05,585.6,542.22S594.54,561.66,595.2,562.95S603.58,578.27,604.8,579.83S612.27,585.98,614.4,587.49S621.51,592.06,624,593.4S630.83,596.7,633.6,597.79S640.22,600.11,643.2,600.92S649.7,602.47,652.8,603.02S659.23,603.98,662.4,604.31S668.81,604.84,672,605S678.4,605.27,681.6,605.27S688,605.27,691.2,605.27S697.6,605.18,700.8,605.13S707.2,605.01,710.4,604.97S716.8,604.87,720,604.86S726.4,604.86,729.6,604.88S736,604.98,739.2,605.09S745.61,605.33,748.8,605.51S755.22,605.91,758.4,606.17S764.84,606.74,768,607.08S774.46,607.83,777.6,608.26S784.08,609.18,787.2,609.69S793.71,610.79,796.8,611.36S803.34,612.63,806.4,613.27S812.96,614.69,816,615.39S822.59,616.96,825.6,617.71S832.21,619.4,835.2,620.19S841.83,621.99,844.8,622.82S851.45,624.7,854.4,625.56S861.06,627.51,864,628.39S870.67,630.39,873.6,631.27S880.27,633.3,883.2,634.19S889.87,636.22,892.8,637.11S899.22,639.76,902.4,640S908.94,639.25,912,638.58S918.64,636.66,921.6,635.82S928.22,633.98,931.2,633.17S937.8,631.42,940.8,630.65S947.37,629,950.4,628.28S958.48,626.42,960,626.08" style="fill: none; stroke: blue; stroke-width: 6;"></path>
    </g>
   </svg>
   <g>
    <g transform="translate(0,640)">
     <path d="M0,0h960M0,-24V0M19,-12V0M38,-12V0M58,-12V0M77,-12V0M96,-24V0M115,-12V0M134,-12V0M154,-12V0M173,-12V0M192,-24V0M211,-12V0M230,-12V0M250,-12V0M269,-12V0M288,-24V0M307,-12V0M326,-12V0M346,-12V0M365,-12V0M384,-24V0M403,-12V0M422,-12V0M442,-12V0M461,-12V0M480,-24V0M499,-12V0M518,-12V0M538,-12V0M557,-12V0M576,-24V0M595,-12V0M614,-12V0M634,-12V0M653,-12V0M672,-24V0M691,-12V0M710,-12V0M730,-12V0M749,-12V0M768,-24V0M787,-12V0M806,-12V0M826,-12V0M845,-12V0M864,-24V0M883,-12V0M902,-12V0M922,-12V0M941,-12V0M960,-24V0" style="stroke: black; stroke-width: 1;"></path>
     <g font-family="Arial" font-size="28" space="preserve" fill="black" text-anchor="middle">
      <text dy=".8em" transform="translate(0,6)">
       0
      </text>
      <text dy=".8em" transform="translate(96,6)">
       1
      </text>
      <text dy=".8em" transform="translate(192,6)">
       2
      </text>
      <text dy=".8em" transform="translate(288,6)">
       3
      </text>
      <text dy=".8em" transform="translate(384,6)">
       4
      </text>
      <text dy=".8em" transform="translate(480,6)">
       5
      </text>
      <text dy=".8em" transform="translate(576,6)">
       6
      </text>
      <text dy=".8em" transform="translate(672,6)">
       7
      </text>
      <text dy=".8em" transform="translate(768,6)">
       8
      </text>
      <text dy=".8em" transform="translate(864,6)">
       9
      </text>
      <text dy=".8em" transform="translate(960,6)">
       10
      </text>
     </g>
    </g>
    <g>
     <path d="M0,0v640M36,640H0M18,622H0M18,605H0M18,587H0M36,570H0M18,552H0M18,534H0M18,517H0M36,499H0M18,481H0M18,464H0M18,446H0M36,429H0M18,411H0M18,393H0M18,376H0M36,358H0M18,341H0M18,323H0M18,305H0M36,288H0M18,270H0M18,252H0M18,235H0M36,217H0M18,200H0M18,182H0M18,164H0M36,147H0M18,129H0M18,112H0M18,94H0M36,76H0M18,59H0M18,41H0M18,23H0M36,6H0" style="stroke: black; stroke-width: 1;"></path>
     <g font-family="Arial" font-size="28" space="preserve" fill="black" text-anchor="end">
      <text dy=".4em" transform="translate(-4,640)">
       0
      </text>
      <text dy=".4em" transform="translate(-4,570)">
       20
      </text>
      <text dy=".4em" transform="translate(-4,499)">
       40
      </text>
      <text dy=".4em" transform="translate(-4,429)">
       60
      </text>
      <text dy=".4em" transform="translate(-4,358)">
       80
      </text>
      <text dy=".4em" transform="translate(-4,288)">
       100
      </text>
      <text dy=".4em" transform="translate(-4,217)">
       120
      </text>
      <text dy=".4em" transform="translate(-4,147)">
       140
      </text>
      <text dy=".4em" transform="translate(-4,76)">
       160
      </text>
      <text dy=".4em" transform="translate(-4,6)">
       180
      </text>
     </g>
    </g>
    <g transform="translate(960)">
     <path d="M0,0v640M0,627H-18M0,614H-18M0,600H-18M0,587H-18M0,573H-36M0,560H-18M0,547H-18M0,533H-18M0,520H-18M0,506H-36M0,493H-18M0,479H-18M0,466H-18M0,452H-18M0,439H-36M0,426H-18M0,412H-18M0,399H-18M0,385H-18M0,372H-36M0,358H-18M0,345H-18M0,331H-18M0,318H-18M0,304H-36M0,291H-18M0,278H-18M0,264H-18M0,251H-18M0,237H-36M0,224H-18M0,210H-18M0,197H-18M0,183H-18M0,170H-36M0,157H-18M0,143H-18M0,130H-18M0,116H-18M0,103H-36M0,89H-18M0,76H-18M0,62H-18M0,49H-18M0,35H-36M0,22H-18M0,9H-18" style="stroke: black; stroke-width: 1;"></path>
     <g font-family="Arial" font-size="28" space="preserve" fill="black" text-anchor="start">
      <text dy=".4em" transform="translate(4,573)">
       5
      </text>
      <text dy=".4em" transform="translate(4,506)">
       10
      </text>
      <text dy=".4em" transform="translate(4,439)">
       15
      </text>
      <text dy=".4em" transform="translate(4,372)">
       20
      </text>
      <text dy=".4em" transform="translate(4,304)">
       25
      </text>
      <text dy=".4em" transform="translate(4,237)">
       30
      </text>
      <text dy=".4em" transform="translate(4,170)">
       35
      </text>
      <text dy=".4em" transform="translate(4,103)">
       40
      </text>
      <text dy=".4em" transform="translate(4,35)">
       45
      </text>
     </g>
    </g>
   </g>
  </g>
  <g transform="translate(120,4)" font-family="Arial" font-size="40" space="preserve">
   <text fill="black" text-anchor="middle" dy=".8em" transform="translate(480)">
    Test random numbers
   </text>
  </g>
  <g transform="translate(936,52)" font-family="Arial" font-size="25" space="preserve" fill="black">
   <path d="M0,0H240V128H0Z" style="fill: white; stroke: black; stroke-width: 1;"></path>
   <text text-anchor="middle" dy=".4em" transform="translate(120,16)">
    h1f
   </text>
   <text text-anchor="start" dy=".4em" transform="translate(12,48)">
    Entries
   </text>
   <text text-anchor="end" dy=".4em" transform="translate(228,48)">
    10000
   </text>
   <text text-anchor="start" dy=".4em" transform="translate(12,80)">
    Mean
   </text>
   <text text-anchor="end" dy=".4em" transform="translate(228,80)">
    3.637
   </text>
   <text text-anchor="start" dy=".4em" transform="translate(12,112)">
    Std Dev
   </text>
   <text text-anchor="end" dy=".4em" transform="translate(228,112)">
    1.834
   </text>
   <path d="M0,32h240" style="stroke: black; stroke-width: 1;"></path>
  </g>
 </g>
</svg>
